X:12
T:Rig a Jig
Q:1/4=140
M:6/8
L:1/8
K:G
|DED DED|B2G A2B|c2A F2A|d2B GFE|
DED DED|B2G A2c|B2d cBA|G3G3:|
|:B3d3|e2d B3|ABA E2F|A2F E2D|
B3d3|e2d B3|ABA E2F|(G3G3):|


